dist/img/svg/rbc-500.svg

<svg width="248" height="69" viewBox="0 0 248 69" fill="none" xmlns="http://www.w3.org/2000/svg">
<g clip-path="url(#clip0_1_718)">
<path fill-rule="evenodd" clip-rule="evenodd" d="M0 23.9702H13.885C23.9833 23.9702 29.7748 28.8795 29.7748 37.5652V37.7918C29.7748 46.3264 24.0575 51.1602 14.0336 51.1602H8.5389V67.3985H0V23.9702ZM13.885 44.6648C18.7856 44.6648 21.3844 42.2479 21.3844 37.7918V37.5652C21.3844 33.0335 19.0084 30.9187 13.885 30.9187H8.61318V44.6648H13.885Z" fill="#2A2A2A"/>
<path fill-rule="evenodd" clip-rule="evenodd" d="M43.66 41.0395H50.6397C60.4408 41.0395 65.8614 45.6467 65.8614 53.9547V54.1813C65.8614 62.5651 60.2178 67.3985 50.4912 67.3985H35.1211V23.9702H62.2229V30.9943H43.66V41.0395ZM49.8972 47.5349H43.5858V60.5255H50.1941C55.0947 60.5255 57.5451 58.3354 57.5451 54.1058V53.8792C57.5451 49.5742 55.0947 47.5349 49.8972 47.5349Z" fill="#2A2A2A"/>
<path d="M86.9485 44.7338L104.62 23.9636H95.1906L79.6721 42.619V24.0391H71.207V67.4677H79.7462V48.208L95.2647 67.3923H105.437L86.9485 44.7338Z" fill="#2A2A2A"/>
<path d="M135.688 22.4292L114.052 44.275H114.023C114.023 42.5919 114.115 40.9391 114.48 39.3692C114.525 39.1669 114.682 38.9929 114.728 38.7987L130.189 23.3771C130.36 23.3326 130.421 23.0838 130.595 23.0454C131.984 22.714 133.402 22.5142 134.83 22.4486C135.094 22.412 135.327 22.4289 135.688 22.4292Z" fill="black"/>
<path d="M144.241 24.1493L124.002 44.85H119.156L140.517 23C141.79 23.2672 143.037 23.6519 144.241 24.1493Z" fill="black"/>
<path d="M151.652 28.4668L133.998 44.85H128.848L148.676 26.45C149.724 27.0485 150.719 27.7229 151.652 28.4668Z" fill="black"/>
<path d="M156.213 33.2756L143.617 44.8501H139.427H138.539L154.039 30.4751C154.841 31.3538 155.568 32.2902 156.213 33.2756Z" fill="black"/>
<path d="M159.063 40.0597L154.044 44.8487H150.184L149.371 44.8501L157.922 36.2251C158.419 37.4655 158.8 38.7491 159.063 40.0597Z" fill="black"/>
<path d="M135.688 0H114.023V22.4804V44.85C114.023 38.6679 116.553 33.1813 120.476 29.1381C123.29 26.2002 126.829 24.1144 130.71 23.1068C132.334 22.6908 134.014 22.4264 135.688 22.425V0Z" fill="black"/>
<path d="M158.492 0H135.688V22.425H158.492V0Z" fill="#FFCC66"/>
<path d="M136.828 67.2751C139.748 67.2751 142.64 66.6949 145.338 65.5679C148.035 64.4409 150.486 62.789 152.551 60.7069C154.616 58.6242 156.254 56.1524 157.37 53.4316C158.488 50.7109 159.062 47.7949 159.062 44.8501H136.83L136.828 67.2751Z" fill="#FFCC66"/>
<path d="M226.04 62.1001L226.334 62.586V66.7932L226.04 67.2751C224.416 67.2808 222.795 67.125 221.203 66.8105L226.04 62.1001Z" fill="black"/>
<path d="M225.765 51.75V52.8406V56.8232L217.109 65.55C215.96 65.0981 214.851 64.5541 213.793 63.9239L225.765 51.75Z" fill="black"/>
<path d="M226.07 43.9805L226.338 44.321V46.0554L226.07 46.5094L211.1 62.1C210.224 61.322 209.409 60.4721 208.664 59.5579L223.622 43.9805L224.046 43.7H225.762L226.07 43.9805Z" fill="black"/>
<path d="M218.355 44.5423L206.878 56.3499C206.243 55.2808 205.695 54.159 205.242 52.9963L213.456 44.553L214.039 44.2749H217.789L218.355 44.5423Z" fill="black"/>
<path d="M208.092 44.5716L203.953 49.4499C203.671 47.845 203.53 46.2104 203.531 44.5716L203.824 44.2749H207.684L208.092 44.5716Z" fill="black"/>
<path d="M229.756 22.898L224.917 27.5998L224.625 27.0198V22.7519L224.921 22.4248C226.545 22.4231 228.165 22.5816 229.756 22.898Z" fill="#FFCC66"/>
<path d="M237.168 25.8004L224.912 37.3749L224.625 36.6672V32.8188L224.916 32.4338L233.688 24.1499L237.168 25.8004Z" fill="#FFCC66"/>
<path d="M227.676 44.8501L242.869 30.1977C242.068 29.2652 241.195 28.3966 240.257 27.6001L225.195 42.4923V44.8501H227.676Z" fill="#FFCC66"/>
<path d="M246.859 36.8628L238.287 45.7089L237.747 46.0001H233.589L233.176 45.7089L245.148 33.3501C245.814 34.4691 246.385 35.6442 246.859 36.8628Z" fill="#FFCC66"/>
<path d="M248.002 45.2607L247.615 46H242.914L242.301 45.7034L247.478 40.825C247.827 42.4302 248.003 43.622 248.002 45.2607Z" fill="#FFCC66"/>
<path d="M185.858 22.8704L181.297 27.6001V22.4251C182.741 22.4235 184.444 22.5727 185.858 22.8704Z" fill="black"/>
<path d="M193.27 25.7785L181.297 37.3749V32.7036L189.947 24.1499C189.947 24.1499 191.024 24.5173 191.773 24.8846C192.522 25.252 193.27 25.7785 193.27 25.7785Z" fill="black"/>
<path d="M198.401 30.0799L183.629 44.8501H181.902H181.297V44.158V42.3786L181.569 42.1048L195.955 27.6001C196.833 28.3605 197.651 29.1897 198.401 30.0799Z" fill="black"/>
<path d="M202.39 36.1279L193.409 44.8499H189.312H188.707L200.704 32.7749C201.36 33.843 201.923 34.9647 202.39 36.1279Z" fill="black"/>
<path d="M203.533 44.8493H203.206H199.228L198.402 44.85L203.09 40.25C203.386 41.6767 203.534 43.393 203.533 44.8493Z" fill="black"/>
<path d="M225.766 22.425C219.871 22.4245 214.218 24.7864 210.049 28.9915C205.88 33.1967 203.535 38.9009 203.531 44.85H225.766V22.425Z" fill="#FFCC66"/>
<path d="M225.766 67.2751C231.66 67.2757 237.313 64.9136 241.483 60.7086C245.652 56.5035 247.996 50.7993 248 44.8501H225.774V67.2751H225.766Z" fill="black"/>
<path d="M176.734 66.7996L181.295 62.1001C181.295 62.1001 181.295 66.5356 181.293 67.2751C179.775 67.2751 178.255 67.2009 176.734 66.7996Z" fill="black"/>
<path d="M181.297 52.325V57.2661L173.133 65.55C172.01 65.0928 170.927 64.5408 169.895 63.8997L181.297 52.325Z" fill="black"/>
<path d="M173.886 44.8501L162.411 56.9251C161.775 55.8318 161.227 54.6843 160.773 53.4946L168.991 44.8501H173.886Z" fill="black"/>
<path d="M164.194 44.8501L159.532 49.4501C159.218 47.9364 159.061 46.3952 159.063 44.8501H164.194Z" fill="black"/>
<path d="M181.299 44.8501V47.3635L166.695 62.1001C165.797 61.3279 164.962 60.4855 164.195 59.5804L178.791 44.8501H181.299Z" fill="black"/>
<path d="M181.297 22.425C175.403 22.425 169.749 24.7872 165.58 28.9923C161.411 33.1974 159.066 38.9012 159.062 44.85H181.297V22.425Z" fill="#FFCC66"/>
<path d="M181.297 67.2751C187.192 67.2757 192.845 64.9136 197.014 60.7086C201.183 56.5035 203.528 50.7993 203.532 44.8501H181.297V67.2751Z" fill="#FFCC66"/>
</g>
<defs>
<clipPath id="clip0_1_718">
<rect width="248" height="69" fill="white"/>
</clipPath>
</defs>
</svg>

<svg width="248" height="69" viewBox="0 0 248 69" fill="none" xmlns="http://www.w3.org/2000/svg"><g clip-path="url(#clip0_1_718)"><path fill-rule="evenodd" clip-rule="evenodd" d="M0 23.97h13.885c10.098 0 15.89 4.91 15.89 13.595v.227c0 8.534-5.717 13.368-15.741 13.368H8.539V67.4H0V23.97zm13.885 20.695c4.9 0 7.5-2.417 7.5-6.873v-.227c0-4.532-2.377-6.646-7.5-6.646H8.613v13.746h5.272zM43.66 41.04h6.98c9.8 0 15.221 4.607 15.221 12.915v.226c0 8.384-5.643 13.218-15.37 13.218h-15.37V23.97h27.102v7.024H43.66V41.04zm6.237 6.495h-6.311v12.99h6.608c4.9 0 7.351-2.19 7.351-6.42v-.226c0-4.305-2.45-6.344-7.648-6.344z" fill="#2A2A2A"/><path d="M86.948 44.734l17.672-20.77h-9.43L79.673 42.619v-18.58h-8.465v43.429h8.54v-19.26l15.518 19.184h10.172l-18.49-22.658z" fill="#2A2A2A"/><path d="M135.688 22.43l-21.636 21.845h-.029c0-1.683.092-3.336.457-4.906.045-.202.202-.376.248-.57l15.461-15.422c.171-.044.232-.293.406-.332a22.747 22.747 0 014.235-.596c.264-.037.497-.02.858-.02zm8.553 1.72l-20.239 20.7h-4.846L140.517 23a21.05 21.05 0 013.724 1.15zm7.411 4.317L133.998 44.85h-5.15l19.828-18.4a23.336 23.336 0 012.976 2.017zm4.561 4.809L143.617 44.85h-5.078l15.5-14.375a22.15 22.15 0 012.174 2.8zm2.85 6.784l-5.019 4.789h-3.86l-.813.001 8.551-8.625c.497 1.24.878 2.524 1.141 3.835z" fill="#000"/><path d="M135.688 0h-21.665v44.85c0-6.182 2.53-11.669 6.453-15.712a21.748 21.748 0 0110.234-6.031c1.624-.416 3.304-.68 4.978-.682V0z" fill="#000"/><path d="M158.492 0h-22.804v22.425h22.804V0zm-21.664 67.275c2.92 0 5.812-.58 8.51-1.707a22.236 22.236 0 007.213-4.861 22.412 22.412 0 004.819-7.275 22.58 22.58 0 001.692-8.582H136.83l-.002 22.425z" fill="#FC6"/><path d="M226.04 62.1l.294.486v4.207l-.294.482a24.52 24.52 0 01-4.837-.465l4.837-4.71zm-.275-10.35v5.073l-8.656 8.727a22.753 22.753 0 01-3.316-1.626l11.972-12.174zm.305-7.77l.268.341v1.734l-.268.454L211.1 62.1a21.92 21.92 0 01-2.436-2.542l14.958-15.578.424-.28h1.716l.308.28zm-7.715.562L206.878 56.35a22.72 22.72 0 01-1.636-3.354l8.214-8.443.583-.278h3.75l.566.267zm-10.263.03l-4.139 4.878a28.108 28.108 0 01-.422-4.878l.293-.297h3.86l.408.297z" fill="#000"/><path d="M229.756 22.898l-4.839 4.702-.292-.58v-4.268l.296-.327a24.66 24.66 0 014.835.473zm7.412 2.902l-12.256 11.575-.287-.708V32.82l.291-.385 8.772-8.284 3.48 1.65zm-9.492 19.05l15.193-14.652a23.469 23.469 0 00-2.612-2.598l-15.062 14.892v2.358h2.481zm19.183-7.987l-8.572 8.846-.54.291h-4.158l-.413-.291 11.972-12.359a23.575 23.575 0 011.711 3.513zm1.143 8.397l-.387.74h-4.701l-.613-.297 5.177-4.878c.349 1.605.525 2.797.524 4.436z" fill="#FC6"/><path d="M185.858 22.87l-4.561 4.73v-5.175c1.444-.002 3.147.148 4.561.445zm7.412 2.909l-11.973 11.596v-4.671l8.65-8.554s1.077.367 1.826.735c.749.367 1.497.893 1.497.893zm5.131 4.301l-14.772 14.77h-2.332v-2.472l.272-.273L195.955 27.6a22.22 22.22 0 012.446 2.48zm3.989 6.048l-8.981 8.722h-4.702l11.997-12.075a22.23 22.23 0 011.686 3.353zm1.143 8.722h-5.131l4.688-4.6c.296 1.427.444 3.143.443 4.6z" fill="#000"/><path d="M225.766 22.425a22.127 22.127 0 00-15.717 6.566 22.549 22.549 0 00-6.518 15.859h22.235V22.425z" fill="#FC6"/><path d="M225.766 67.275a22.13 22.13 0 0015.717-6.566A22.548 22.548 0 00248 44.85h-22.226v22.425h-.008zm-49.032-.475l4.561-4.7s0 4.436-.002 5.175c-1.518 0-3.038-.074-4.559-.475zm4.563-14.475v4.941l-8.164 8.284a21.497 21.497 0 01-3.238-1.65l11.402-11.575zm-7.411-7.475l-11.475 12.075a23.448 23.448 0 01-1.638-3.43l8.218-8.645h4.895zm-9.692 0l-4.662 4.6a22.502 22.502 0 01-.469-4.6h5.131zm17.105 0v2.514L166.695 62.1a22.541 22.541 0 01-2.5-2.52l14.596-14.73h2.508z" fill="#000"/><path d="M181.297 22.425a22.132 22.132 0 00-15.717 6.567 22.548 22.548 0 00-6.518 15.858h22.235V22.425zm0 44.85a22.127 22.127 0 0015.717-6.566 22.549 22.549 0 006.518-15.859h-22.235v22.425z" fill="#FC6"/></g><defs><clipPath id="clip0_1_718"><path fill="#fff" d="M0 0h248v69H0z"/></clipPath></defs></svg>
